X: 37954
T: Spanish Gypsy, The
R: jig
M: 6/8
K: Dmajor
|:def def|d3 d2A|def def|e3 e2f|
f2e d2=c|B3A3|A2G A2G|F3F3:|
|:F2G A2A|B2A d2D|F2G AGF|E3D3:|

